boxicons/svg/regular/bx-arrow-from-bottom.svg

<svg xmlns="http://www.w3.org/2000/svg" width="24" height="24" viewBox="0 0 24 24"><path d="M6 18h12v2H6zm6-14.414-6.707 6.707 1.414 1.414L11 7.414V16h2V7.414l4.293 4.293 1.414-1.414z"/></svg>

<svg xmlns="http://www.w3.org/2000/svg" width="24" height="24" viewBox="0 0 24 24"><path d="M6 18H18V20H6zM12 3.586L5.293 10.293 6.707 11.707 11 7.414 11 16 13 16 13 7.414 17.293 11.707 18.707 10.293z"/></svg>
